X: 19513
T: Jacky's Mountain
R: jig
M: 6/8
K: Eminor
|:"Em" E2F GB,F|EFG "B7"A2B|"Am" c2A "Em"Bce|"B7" ^def B2B|
"D7"cFc edc|"G" BAG D2B|"B7"AGF ^DB,^D|"Em"E3 E2E:|
|:"Em" B,CB, "B7"FB,A|"Em"GA^A "B"B3|B^de fga|"Em" be^a bge|
"Am"c'ba "Em"gfe|"B7"^dfB "Em"g2e|"Am"cBA "B7"FGF|1 "Em"E3 E2B,:|"Em"2 E6||

